X: 040113
T: Dave's Donegal Rambles
S: Dave Abe
Z: B.Black
R: reel
M: 4/4
L: 1/8
K: D
E | F3 A AFDE | F2 EG FDDE | F3 A AFDE |\
F2 EF D3 :|
A | d3 A FGAB | A2 dA (3Bcd ec | d3 A FGAB |\
AFGE FD D3 :|
